packages/tokens/icons/chartArrow/size24Px.svg

<svg viewBox="0 0 24 24" fill="none" xmlns="http://www.w3.org/2000/svg" width="1em" height="1em"><rect x="2.5" y="13.5" width="4" height="8" rx="1.5" stroke="currentColor"/><path d="M9 10C9 9.17157 9.67157 8.5 10.5 8.5H11.5C12.3284 8.5 13 9.17157 13 10L13 20C13 20.8284 12.3284 21.5 11.5 21.5H10.5C9.67157 21.5 9 20.8284 9 20L9 10Z" stroke="currentColor"/><path d="M21 6.5H22.3516L21.3254 5.62037L17.8254 2.62037L17.5 2.34146L17.1746 2.62037L13.6746 5.62037L12.6484 6.5H14H15C15.2761 6.5 15.5 6.72386 15.5 7L15.5 20C15.5 20.8284 16.1716 21.5 17 21.5H18C18.8284 21.5 19.5 20.8284 19.5 20L19.5 7C19.5 6.72386 19.7239 6.5 20 6.5L21 6.5Z" stroke="currentColor" stroke-linejoin="round"/></svg>

<svg xmlns="http://www.w3.org/2000/svg" fill="none" viewBox="0 0 24 24" width="1em" height="1em"><rect width="4" height="8" x="2.5" y="13.5" stroke="currentColor" rx="1.5"/><path stroke="currentColor" d="M9 10a1.5 1.5 0 0 1 1.5-1.5h1A1.5 1.5 0 0 1 13 10v10a1.5 1.5 0 0 1-1.5 1.5h-1A1.5 1.5 0 0 1 9 20V10Z"/><path stroke="currentColor" stroke-linejoin="round" d="M21 6.5h1.352l-1.027-.88-3.5-3-.325-.279-.325.28-3.5 3-1.027.879H15a.5.5 0 0 1 .5.5v13a1.5 1.5 0 0 0 1.5 1.5h1a1.5 1.5 0 0 0 1.5-1.5V7a.5.5 0 0 1 .5-.5h1Z"/></svg>
